!!!COM: Palestrina, Giovanni Perluigi da
!!!OPR: Quam pulchra es
!!!OTL: Agnus I
**kern	**kern	**kern	**kern
*Ibass	*Itenor	*Icalto	*Icant
!Bassus	!Tenor	!Altus	!Cantus
*clefF4	*clefGv2	*clefG2	*clefG2
*k[]	*k[]	*k[]	*k[]
*C:ion	*C:ion	*C:ion	*C:ion
*M4/2	*M4/2	*M4/2	*M4/2
=1	=1	=1	=1
0r	1c	1r	1.cc
.	1f	2r	.
.	.	[2f	2cc
=2	=2	=2	=2
0r	1d	2f]	1dd
.	.	2f	.
.	[1c	1g	1ee
=3	=3	=3	=3
1F	1c]	1a	2r
.	.	.	2cc
1B-	1r	2r	2dd
.	.	2f	2ff
=4	=4	=4	=4
1G	0r	2g	2ee
.	.	2.b-	2.dd
1F	.	.	.
.	.	4a	4cc
.	.	2a	[2ff
=5	=5	=5	=5
0r	1.c	2g	2ff]
.	.	1a	4ee
.	.	.	4dd
.	.	.	4ee
.	.	.	4dd
.	2c	[2g	4cc
.	.	.	4b
=6	=6	=6	=6
0r	1d	2g]	1a
.	.	2f#	.
.	1e	2g	2g
.	.	2g	2b
=7	=7	=7	=7
1.F	2r	2a	4cc
.	.	.	4b
.	2c	4cc	4a
.	.	4b	4g
.	2d	4a	2f
.	.	4g	.
2F	2f	2a	[2cc
=8	=8	=8	=8
1G	2e	2.g	4cc]
.	.	.	8b
.	.	.	8a
.	2d	.	2b
.	.	4f	.
1A	4c	1e	1cc
.	4d	.	.
.	4e	.	.
.	4c	.	.
=9	=9	=9	=9
2r	4d	2f	1a
.	4e	.	.
2F	2f	2a	.
2G	2e	2g	1r
2B-	[2d	[2f	.
=10	=10	=10	=10
1A	4d]	4f]	0r
.	4c	4e	.
.	1c	2c	.
2G	.	2d	.
2G	2B	[2e	.
=11	=11	=11	=11
2.A	1c	4e]	1.cc
.	.	4d	.
.	.	4c	.
4G	.	4B	.
2.F	2r	2A	.
.	[2f	[2c	2cc
4E	.	.	.
=12	=12	=12	=12
1D	2f]	4c]	1dd
.	.	4B	.
.	2f	4B	.
.	.	4A	.
1C	1g	1c	1ee
=13	=13	=13	=13
0r	1a	1.f	2r
.	.	.	2cc
.	2r	.	2dd
.	2d	2f	2ff
=14	=14	=14	=14
0r	2e	1g	2ee
.	2g	.	1dd
.	2.f	1a	.
.	.	.	2cc
.	4e	.	.
=15	=15	=15	=15
1r	1d	2r	1ff
.	.	2f	.
2r	2c	2g	2ee
2G	2g	2b-	2dd
=16	=16	=16	=16
2A	2.e	2a	2cc
1c	.	4g	1ee
.	4d	4f	.
.	2c	2e	.
2B	2G	[2g	2dd
=17	=17	=17	=17
2A	1c	2g]	2cc
2A	.	2f#	2a
1G	1r	2.g	4b
.	.	.	4cc
.	.	.	[2dd
.	.	4f	.
=18	=18	=18	=18
1A	2r	4e	4dd]
.	.	4A	4cc
.	1e	2.a	4cc
.	.	.	8b
.	.	.	8a
1r	.	.	2b
.	.	4g	.
.	2c	[2g	2cc
=19	=19	=19	=19
1r	1d	2g]	1a
.	.	2f#	.
2r	2.e	2g	1g
[2E	.	[2g	.
.	8d	.	.
.	8c	.	.
=20	=20	=20	=20
2E]	2B	2g]	0r
2C	2c	2e	.
1D	1A	1f#	.
=21	=21	=21	=21
2.E	2G	2.g	1r
.	2B	.	.
4F	.	8f	.
.	.	8e	.
2G	2B	2d	2r
4C	2c	2e	[2ee
4D	.	.	.
=22	=22	=22	=22
4E	2G	2r	2ee]
8D	.	.	.
8E	.	.	.
2F	2.c	1a	2cc
1D	.	.	1dd
.	8B	.	.
.	8A	.	.
.	4B	2f	.
.	4A	.	.
=23	=23	=23	=23
1C	1c	0g	2.ee
.	.	.	8dd
.	.	.	8cc
1r	1e	.	2b
.	.	.	[2cc
=24	=24	=24	=24
0r	1f	2.a	4cc]
.	.	.	4a
.	.	.	2.dd
.	.	8g	.
.	.	8f	.
.	2g	2e	.
.	.	.	4cc
.	2a	2f	[2cc
=25	=25	=25	=25
1r	1f	1d	2cc]
.	.	.	2b
2r	2.e	2c	2.a
[2A	.	2A	.
.	4d	.	8g
.	.	.	8f
=26	=26	=26	=26
2A]	4c	2a	2e
.	4B	.	.
2F	1c	2a	2f
1G	.	1g	1d
.	2B	.	.
=27	=27	=27	=27
2.A	2c	1e	2r
.	1e	.	2a
8G	.	.	.
8F	.	.	.
2E	.	2r	2g
2F	2c	[2a	[2f
=28	=28	=28	=28
1D	1d	2a]	4f]
.	.	.	4g
.	.	2f	4a
.	.	.	4b
1C	2.e	[1g	4cc
.	.	.	4dd
.	.	.	2ee
.	8d	.	.
.	8c	.	.
=29	=29	=29	=29
0r	2B	1g]	2dd
.	2c	.	2.ee
.	1A	1c	.
.	.	.	4dd
.	.	.	[2cc
=30	=30	=30	=30
1r	1G	1d	2cc]
.	.	.	2b
2r	1c	1e	2cc
[2c	.	.	[2ee
=31	=31	=31	=31
2c]	2r	1cc	2ee]
2A	1a	.	2cc
1d	.	1a	1dd
.	2f	.	.
=32	=32	=32	=32
1c	1g	1cc	2ee
.	.	.	4gg
.	.	.	4ff
2r	2.a	2cc	4ee
.	.	.	4dd
[2A	.	[2cc	4cc
.	8g	.	4b
.	8f	.	.
=33	=33	=33	=33
2A]	2e	4cc]	4a
.	.	4b	4g
2F	2f	2a	1cc
1G	1d	1g	.
.	.	.	2b
=34	=34	=34	=34
2.A	1c	2r	[0cc
.	.	1e	.
8G	.	.	.
8F	.	.	.
2E	2g	.	.
[2F	2a	2c	.
=35	=35	=35	=35
2F]	2a	2f	1cc_
2E	2g	2g	.
1F	1f	1a	1cc_
=36	=36	=36	=36
0C	0e	0g	0cc]
==	==	==	==
*-	*-	*-	*-
!!!CDT: 1525/^1526/-1594/2/2
!!!OCY: Italia
!!!AGN: Mass (Parody)
!!!AST: renaissance, vocal
!!!ASW: Motet 1532 (Johannes Lupi)
!!!PWK: Masses, Book 6
!!!RNB: Cadence finals: G
!!!YOR: Le Opere Complete, v. 21, p. 73
!!!YOO: Rome, Italy: Fratelli Scalera
!!!END: 1992//
!!!EED: John Miller
!!!YEC: Copyright 2000, John Miller
!!!YEN: United States of America
!!!YEM: Rights to all derivative electronic formats reserved.
!!!YEM: Refer to licensing agreement for further details.
!!!YEM: This file must be accompanied by the licensing agreement.
!!!YEM: A copy of the licensing agreement may be found at http://www.music-cog.ohio-state.edu/HumdrumDatabases/Palestrina/license.txt
!!!EMD: converted to Humdrum by Bret Aarden
